src/assets/images/tech/aws.svg

<svg width="50" height="32" viewBox="0 0 50 32" fill="none" xmlns="http://www.w3.org/2000/svg">
<g id="aws">
<g id="aws_2">
<path id="Vector" d="M15.5285 11.6218C15.5285 12.2803 15.5924 12.8143 15.7041 13.2058C15.8318 13.5974 15.9915 14.0245 16.215 14.4872C16.2948 14.6296 16.3267 14.772 16.3267 14.8966C16.3267 15.0746 16.231 15.2525 16.0234 15.4305L15.0177 16.178C14.874 16.2848 14.7303 16.3382 14.6026 16.3382C14.4429 16.3382 14.2833 16.2492 14.1237 16.089C13.9002 15.8221 13.7086 15.5373 13.5489 15.2525C13.3893 14.95 13.2297 14.6118 13.0541 14.2025C11.8088 15.8398 10.2443 16.6585 8.36055 16.6585C7.01955 16.6585 5.94994 16.2314 5.16769 15.3771C4.38544 14.5228 3.98633 13.3838 3.98633 11.96C3.98633 10.4472 4.46526 9.21915 5.43908 8.29367C6.4129 7.3682 7.70601 6.90546 9.35034 6.90546C9.89312 6.90546 10.4519 6.95886 11.0426 7.04784C11.6332 7.13683 12.2399 7.27921 12.8784 7.43939V6.14017C12.8784 4.78755 12.623 3.84428 12.1281 3.29255C11.6173 2.74083 10.7552 2.47386 9.52594 2.47386C8.96719 2.47386 8.39248 2.54505 7.8018 2.70523C7.21112 2.86541 6.6364 3.06118 6.07765 3.31035C5.82222 3.43493 5.63065 3.50612 5.5189 3.54172C5.40715 3.57731 5.32733 3.59511 5.26347 3.59511C5.03997 3.59511 4.92822 3.41714 4.92822 3.04339V2.17131C4.92822 1.88654 4.96015 1.67297 5.03997 1.54839C5.11979 1.42381 5.26347 1.29922 5.48697 1.17464C6.04572 0.854284 6.71622 0.58732 7.49848 0.373749C8.28073 0.142381 9.11087 0.0355952 9.98891 0.0355952C11.8887 0.0355952 13.2776 0.51613 14.1716 1.4772C15.0496 2.43827 15.4966 3.89767 15.4966 5.85541V11.6218H15.5285ZM9.04701 14.3271C9.57384 14.3271 10.1166 14.2203 10.6913 14.0067C11.2661 13.7931 11.7769 13.4016 12.2079 12.8677C12.4634 12.5295 12.6549 12.1557 12.7507 11.7286C12.8465 11.3015 12.9104 10.7853 12.9104 10.1802V9.43272C12.4474 9.30814 11.9525 9.20135 11.4417 9.13016C10.9308 9.05897 10.4359 9.02337 9.94102 9.02337C8.87141 9.02337 8.08915 9.25474 7.56233 9.73528C7.03551 10.2158 6.78008 10.8921 6.78008 11.782C6.78008 12.6185 6.97165 13.2414 7.37076 13.6685C7.7539 14.1135 8.31265 14.3271 9.04701 14.3271ZM21.8664 16.2492C21.579 16.2492 21.3874 16.1958 21.2597 16.0712C21.132 15.9644 21.0202 15.7153 20.9245 15.3771L17.1728 1.61958C17.0771 1.26363 17.0292 1.03226 17.0292 0.907677C17.0292 0.622915 17.1569 0.462737 17.4123 0.462737H18.9768C19.2801 0.462737 19.4877 0.51613 19.5994 0.640713C19.7271 0.747499 19.8229 0.996665 19.9187 1.33482L22.6007 13.1168L25.0911 1.33482C25.171 0.978867 25.2667 0.747499 25.3945 0.640713C25.5222 0.533928 25.7457 0.462737 26.033 0.462737H27.3102C27.6135 0.462737 27.821 0.51613 27.9488 0.640713C28.0765 0.747499 28.1882 0.996665 28.2521 1.33482L30.7744 13.2592L33.5363 1.33482C33.632 0.978867 33.7438 0.747499 33.8555 0.640713C33.9833 0.533928 34.1908 0.462737 34.4782 0.462737H35.9628C36.2183 0.462737 36.3619 0.605118 36.3619 0.907677C36.3619 0.996665 36.346 1.08565 36.33 1.19244C36.314 1.29922 36.2821 1.4416 36.2183 1.63738L32.3709 15.3949C32.2751 15.7509 32.1633 15.9822 32.0356 16.089C31.9079 16.1958 31.7004 16.267 31.429 16.267H30.056C29.7527 16.267 29.5452 16.2136 29.4175 16.089C29.2898 15.9644 29.178 15.7331 29.1141 15.3771L26.6397 3.89767L24.1812 15.3593C24.1014 15.7153 24.0056 15.9466 23.8779 16.0712C23.7501 16.1958 23.5266 16.2492 23.2393 16.2492H21.8664ZM42.3805 16.7297C41.5503 16.7297 40.7202 16.6229 39.922 16.4094C39.1238 16.1958 38.5012 15.9644 38.0861 15.6975C37.8307 15.5373 37.6551 15.3593 37.5912 15.1991C37.5273 15.039 37.4954 14.861 37.4954 14.7008V13.7931C37.4954 13.4194 37.6231 13.2414 37.8626 13.2414C37.9584 13.2414 38.0542 13.2592 38.1499 13.2948C38.2457 13.3304 38.3894 13.4016 38.5491 13.4728C39.0918 13.7397 39.6825 13.9533 40.3051 14.0957C40.9437 14.2381 41.5663 14.3093 42.2049 14.3093C43.2106 14.3093 43.9929 14.1135 44.5357 13.7219C45.0785 13.3304 45.3658 12.7609 45.3658 12.0312C45.3658 11.5328 45.2221 11.1235 44.9348 10.7853C44.6474 10.4472 44.1046 10.1446 43.3224 9.85986L41.0076 9.05897C39.8422 8.64963 38.9801 8.04451 38.4533 7.24362C37.9264 6.46052 37.6551 5.58844 37.6551 4.66297C37.6551 3.91547 37.7987 3.25696 38.0861 2.68744C38.3734 2.11791 38.7566 1.61958 39.2355 1.22803C39.7144 0.818689 40.2572 0.51613 40.8958 0.302559C41.5344 0.0889879 42.2049 0 42.9073 0C43.2585 0 43.6257 0.0177976 43.9769 0.0711903C44.3441 0.124583 44.6793 0.195773 45.0146 0.266964C45.3339 0.355952 45.6372 0.44494 45.9246 0.551725C46.2119 0.658511 46.4354 0.765296 46.5951 0.872082C46.8186 1.01446 46.9782 1.15684 47.074 1.31702C47.1698 1.4594 47.2177 1.65518 47.2177 1.90434V2.74083C47.2177 3.11458 47.09 3.31035 46.8505 3.31035C46.7228 3.31035 46.5152 3.23916 46.2438 3.09678C45.3339 2.63404 44.3122 2.40267 43.1787 2.40267C42.2687 2.40267 41.5503 2.56285 41.0554 2.90101C40.5606 3.23916 40.3051 3.75529 40.3051 4.48499C40.3051 4.98332 40.4648 5.41047 40.7841 5.74862C41.1033 6.08677 41.694 6.42493 42.5401 6.72749L44.8071 7.52838C45.9565 7.93772 46.7866 8.50725 47.2815 9.23695C47.7764 9.96665 48.0159 10.8031 48.0159 11.7286C48.0159 12.4939 47.8722 13.188 47.6008 13.7931C47.3135 14.3982 46.9303 14.9322 46.4354 15.3593C45.9405 15.8043 45.3498 16.1246 44.6634 16.356C43.945 16.6051 43.1947 16.7297 42.3805 16.7297Z" fill="#252F3E"/>
<path id="Vector_2" fill-rule="evenodd" clip-rule="evenodd" d="M45.3961 25.3784C40.1438 29.7032 32.5129 31.9991 25.9515 31.9991C16.7561 31.9991 8.47065 28.2082 2.21265 21.9078C1.71775 21.4095 2.16475 20.7332 2.75543 21.1248C9.52429 25.503 17.8736 28.1548 26.5103 28.1548C32.3373 28.1548 38.739 26.8022 44.6298 24.0258C45.5078 23.5808 46.2581 24.6665 45.3961 25.3784Z" fill="#FF9900"/>
<path id="Vector_3" fill-rule="evenodd" clip-rule="evenodd" d="M47.5833 22.6024C46.9128 21.6414 43.1452 22.1397 41.4371 22.3711C40.9262 22.4423 40.8464 21.9439 41.3094 21.5702C44.3106 19.2209 49.2436 19.8972 49.8183 20.6803C50.393 21.4812 49.6586 26.9806 46.8489 29.6147C46.4179 30.024 46.0028 29.8105 46.1944 29.2765C46.833 27.5146 48.2538 23.5457 47.5833 22.6024Z" fill="#FF9900"/>
</g>
</g>
</svg>

<svg xmlns="http://www.w3.org/2000/svg" width="50" height="32" fill="none"><path fill="#252F3E" d="M15.529 11.622c0 .658.063 1.192.175 1.584.128.391.287.819.511 1.281a.84.84 0 0 1 .112.41c0 .178-.096.355-.304.534l-1.005.747a.7.7 0 0 1-.415.16c-.16 0-.32-.089-.48-.249a5.5 5.5 0 0 1-.574-.836c-.16-.303-.32-.641-.495-1.05q-1.868 2.456-4.693 2.456c-1.341 0-2.411-.428-3.193-1.282-.783-.854-1.182-1.993-1.182-3.417 0-1.513.48-2.74 1.453-3.666S7.706 6.905 9.35 6.905c.543 0 1.102.054 1.693.143.59.089 1.197.231 1.835.391V6.14c0-1.352-.255-2.296-.75-2.847-.51-.552-1.373-.82-2.602-.82-.559 0-1.134.072-1.724.232s-1.166.356-1.724.605a4 4 0 0 1-.56.232.9.9 0 0 1-.255.053c-.223 0-.335-.178-.335-.552v-.872c0-.284.032-.498.112-.623.08-.124.223-.249.447-.373q.839-.48 2.011-.801a8.7 8.7 0 0 1 2.49-.338c1.9 0 3.29.48 4.184 1.441.878.961 1.325 2.42 1.325 4.378v5.767zm-6.482 2.705c.527 0 1.07-.107 1.644-.32.575-.214 1.086-.605 1.517-1.14.255-.338.447-.711.543-1.138s.16-.944.16-1.549v-.747a12 12 0 0 0-1.47-.303 11 11 0 0 0-1.5-.107c-1.07 0-1.852.232-2.379.712s-.782 1.157-.782 2.047c0 .836.192 1.46.59 1.886.384.446.943.66 1.677.66m12.82 1.922c-.288 0-.48-.053-.607-.178-.128-.107-.24-.356-.336-.694L17.173 1.62c-.096-.356-.144-.588-.144-.712 0-.285.128-.445.383-.445h1.565c.303 0 .51.053.622.178.128.106.224.356.32.694L22.6 13.117l2.49-11.782c.08-.356.176-.588.303-.694.128-.107.352-.178.639-.178h1.277c.303 0 .511.053.639.178.127.106.24.356.303.694l2.522 11.924 2.762-11.924c.096-.356.208-.588.32-.694.127-.107.335-.178.622-.178h1.485c.255 0 .399.142.399.445 0 .089-.016.178-.032.284-.016.107-.048.25-.112.445l-3.847 13.758q-.144.534-.335.694c-.128.107-.336.178-.607.178h-1.373c-.303 0-.51-.053-.639-.178-.127-.125-.239-.356-.303-.712L26.64 3.897 24.18 15.36c-.08.356-.175.588-.303.712-.128.125-.351.178-.639.178zm20.513.48c-.83 0-1.66-.106-2.458-.32-.798-.213-1.42-.445-1.836-.711-.255-.16-.43-.339-.495-.499a1.4 1.4 0 0 1-.096-.498v-.908c0-.374.128-.552.368-.552a.8.8 0 0 1 .287.054c.096.035.24.107.4.178.542.267 1.133.48 1.755.623a8.6 8.6 0 0 0 1.9.213c1.006 0 1.788-.195 2.33-.587.544-.392.83-.961.83-1.69 0-.5-.143-.909-.43-1.247s-.83-.64-1.613-.925l-2.314-.801c-1.166-.41-2.028-1.014-2.555-1.815a4.56 4.56 0 0 1-.798-2.581q0-1.122.431-1.976c.287-.57.67-1.067 1.15-1.459a4.9 4.9 0 0 1 1.66-.925A6.3 6.3 0 0 1 42.907 0a7 7 0 0 1 1.07.071c.367.054.702.125 1.038.196.319.089.622.178.91.285q.43.16.67.32c.224.142.383.285.479.445q.144.213.144.587v.837c0 .374-.128.57-.368.57-.127 0-.335-.072-.606-.214q-1.365-.694-3.065-.694c-.91 0-1.629.16-2.124.498-.494.338-.75.854-.75 1.584 0 .498.16.925.48 1.264.318.338.909.676 1.755.978l2.267.801c1.15.41 1.98.98 2.474 1.709s.735 1.566.735 2.492c0 .765-.144 1.459-.415 2.064a4.7 4.7 0 0 1-1.166 1.566c-.495.445-1.085.766-1.772.997a6.9 6.9 0 0 1-2.282.374"/><path fill="#F90" fill-rule="evenodd" d="M45.396 25.378C40.144 29.703 32.513 32 25.952 32c-9.196 0-17.481-3.79-23.74-10.091-.494-.498-.047-1.175.543-.783 6.77 4.378 15.119 7.03 23.755 7.03 5.827 0 12.229-1.353 18.12-4.13.878-.444 1.628.642.766 1.353" clip-rule="evenodd"/><path fill="#F90" fill-rule="evenodd" d="M47.583 22.602c-.67-.96-4.438-.462-6.146-.23-.51.07-.59-.428-.128-.802 3.002-2.35 7.935-1.673 8.51-.89.574.801-.16 6.3-2.97 8.935-.431.409-.846.196-.655-.338.639-1.762 2.06-5.731 1.39-6.675" clip-rule="evenodd"/></svg>
